docs/public/static/branding/companies/netflix-dark.svg

<svg width="80" height="22" viewBox="0 0 80 22" fill="none" xmlns="http://www.w3.org/2000/svg">
<g clip-path="url(#clip0)">
<path d="M11.0002 20.2269C9.7968 20.4382 8.57219 20.5016 7.30539 20.6703L3.44148 9.35344V21.156C2.23805 21.2827 1.14016 21.4516 0 21.6205V0H3.20938L7.60094 12.2673V0H11.0002V20.2269ZM17.6511 7.91766C18.9602 7.91766 20.966 7.8543 22.1695 7.8543V11.2324C20.6703 11.2324 18.918 11.2324 17.6511 11.2958V16.3209C19.6359 16.1943 21.6205 16.0252 23.6262 15.9619V19.2132L14.2728 19.9523V0H23.6262V3.3782H17.6511V7.91766V7.91766ZM36.1889 3.37828H32.6841V18.918C31.5439 18.918 30.4038 18.918 29.306 18.9601V3.37828H25.8012V0H36.1891L36.1889 3.37828V3.37828ZM41.6784 7.68547H46.3024V11.0636H41.6784V18.728H38.3634V0H47.8015V3.3782H41.6784V7.68547V7.68547ZM53.291 15.772C55.2124 15.8141 57.1548 15.9621 59.034 16.0675V19.4035C56.0148 19.2134 52.9955 19.0236 49.9129 18.9601V0H53.291V15.772ZM61.8843 19.6358C62.9611 19.6992 64.1013 19.7626 65.1991 19.8891V0H61.8843V19.6358V19.6358ZM80 0L75.7138 10.2824L80 21.6205C78.733 21.4516 77.4662 21.2193 76.1994 21.0081L73.7714 14.7586L71.3013 20.5016C70.0765 20.2902 68.8941 20.2269 67.6698 20.058L72.0191 10.1556L68.0919 0H71.7233L73.9402 5.67961L76.3051 0H80V0Z" fill="#D81F26"/>
</g>
<defs>
<clipPath id="clip0">
<rect width="80" height="21.6205" fill="white"/>
</clipPath>
</defs>
</svg>

<svg width="80" height="22" fill="none" xmlns="http://www.w3.org/2000/svg">
  <g clip-path="url(#clip0)">
    <path d="M11 20.227c-1.203.211-2.428.275-3.695.443L3.441 9.353v11.803c-1.203.127-2.3.296-3.441.465V0h3.21L7.6 12.267V0H11v20.227zm6.651-12.31c1.31 0 3.315-.063 4.518-.063v3.378c-1.499 0-3.251 0-4.518.064v5.025c1.985-.127 3.97-.296 5.975-.36v3.252l-9.353.74V0h9.353v3.378h-5.975v4.54zM36.19 3.379h-3.505v15.54c-1.14 0-2.28 0-3.378.042V3.378h-3.505V0H36.19v3.378zm5.49 4.307h4.623v3.379h-4.624v7.664h-3.315V0h9.438v3.378h-6.123v4.307zm11.612 8.087c1.921.042 3.864.19 5.743.295v3.337c-3.02-.19-6.038-.38-9.121-.444V0h3.378v15.772zm8.593 3.864c1.077.063 2.217.127 3.315.253V0h-3.315v19.636zM80 0l-4.286 10.282L80 21.62c-1.267-.168-2.534-.4-3.8-.612l-2.429-6.25-2.47 5.744c-1.225-.212-2.407-.275-3.631-.444l4.35-9.902L68.091 0h3.631l2.217 5.68L76.305 0H80z" fill="#D81F26"/>
  </g>
  <defs>
    <clipPath id="clip0">
      <path fill="#fff" d="M0 0h80v21.62H0z"/>
    </clipPath>
  </defs>
</svg>
